X:1
T:The Love of Christ Constraineth
T:Edwin C. Soley, 1911
T:The Love of Christ Constraineth
T:Public Domain
T:Public Domain
C:Edwin C. Soley, 1911
Z:Public Domain
%%score ( 1 2 ) ( 3 4 )
L:1/8
M:4/4
K:D
V:1 treble 
V:2 treble 
V:3 bass 
V:4 bass 
V:1
 [FA]2 | [Fd]2 [Fc]2 [FB]2 F2 | [EA]4 [FA]2 [FB]2 | [EG]2 [EA]2 [DF]2 [EG]2 | [CE]6 [DF]2 | %5
w: 1.~The|love of Christ con-|eth; O let|the watch- word ring|Till all|
w: 2.~The|love of Christ con-|eth; And we|who trust His Word,|Who know|
w: 3.~The|love of Christ con-|eth; Then let|us work and pray,|And watch|
 [EG]2 [FA]2 [GB]2 [Ec]2 | (D2 E2) [Ec]2 [Dd]2 | [FB]2 [Ec]2 [DA]2 [D^G]2 | [CA]6 [FA]2 | %9
w: the world a- dor-|ing * To Je-|feet it bring. Till|north and|
w: and feel its pow-|er * To glad-|ser- vice stirred, Shall|nei- ther|
w: the glad ap- pear-|ing * Of that|umph- al day, When|Fa- ther,|
 [FB]2 [^DA]2 [EG]2 F2 | [EG]4 [EG]2 [E^G]2 | [EA]2 [CE]2 [DF]2 [EG]2 | [DF]6 [FA]2 | %13
w: south the king- doms|own His glor-|ious sway, And east|and west|
w: faint nor fal- ter,|dark the night|and long, And weak|our hands|
w: Son and Spir- it,|ev- ery tongue|con- fessed, All earth|his broad|
 [Fd]2 [Fc]2 [FB]2 F2 | ([FB]2 [^DA]2) [EG]2 [^EB]2 | [FA]2 [Fd]2 (EF) [Gc]2 | [Fd]6 || %17
w: the na- tions Re-|to * see His|day. * * * *||
w: that la- bor; His|shall * make us|strong. The love * of|con-|
w: do- min- ion In|dear * love shall|rest. * * * *||
"^Refrain" [FA]2 | [Fd]2 [Fc]2 [FB]2 F2 | [CA]4 [DA]2 [EA]2 | [FB]2 [Fc]2 [Fd]2 [^Ge]2 | %21
w: ||||
w: strain-|eth; O let the|word ring, Till|all the world a-|
w: ||||
 (e4 A2) [GA]2 | [Fd]2 [Fc]2 [FB]2 F2 | ([EG]2 [DA]2) [DB]2 [=FB]2 | [FA]2 [Fd]2 (EF) [Gc]2 | %25
w: ||||
w: dor- * ing|Je- sus’ feet it|||
w: ||||
 [Fd]6 |] %26
w: |
w: |
w: |
V:2
 x2 | x6 F2 | x8 | x8 | x8 | x8 | d4 x4 | x8 | x8 | x6 F2 | x8 | x8 | x8 | x6 F2 | x8 | x4 d2 x2 | %16
w: |strain-|||||sus’|||Shall||||joice|||
w: |strain-|||||der|||Though||||strength||Christ|
w: |strain-|||||tri-|||By||||His|||
 x6 || x2 | x6 F2 | x8 | x8 | G6 x2 | x6 F2 | x8 | x4 d2 x2 | x6 |] %26
w: ||||||||||
w: ||watch-|||To|bring.||||
w: ||||||||||
V:3
 [D,A,]2 | [D,A,]2 [D,A,]2 [D,A,]2 [D,A,]2 | [C,A,]4 [D,A,]2 [^D,F,]2 | %3
 [E,B,]2 [C,A,]2 [D,A,]2 [G,,B,]2 | [A,,A,]6 [D,A,]2 | [A,,A,]2 [A,,A,]2 [A,,A,]2 [^A,,G,]2 | %6
 [B,,F,]2 [E,^G,]2 [A,,A,]2 [F,A,]2 | [D,A,]2 [E,^G,]2 [=F,B,]2 [E,B,]2 | [A,,A,]6 [D,A,]2 | %9
 [^D,F,]2 [B,,B,]2 [E,B,]2 [D,B,]2 | [E,B,]4 [E,B,]2 [D,B,]2 | [C,E,]2 [A,,A,]2 [D,A,]2 [C,A,]2 | %12
 [D,A,]6 [D,A,]2 | [D,A,]2 [D,^A,]2 [D,B,]2 [D,=C]2 | (^D,2 B,,2) [E,B,]2 [^G,,^D]2 | %15
 [A,,D]2 [A,,A,]2 [A,,A,]2 [A,,A,]2 | [D,A,]6 || [D,A,]2 | [D,A,]2 [A,,A,]2 [D,A,]2 [A,,A,]2 | %19
 (E,2 A,,2) [B,,A,]2 [C,A,]2 | [D,A,]2 [C,A,]2 [B,,B,]2 [_B,,D]2 | %21
 ([A,,C]2 [B,,D]2 [C,E]2) [A,,C]2 | [B,,D]2 [C,^A,]2 [D,B,]2 [^D,B,]2 | %23
 ([E,B,]2 [F,=C]2) [G,B,]2 [^G,D]2 | [A,D]2 A,2 [A,,A,]2 [A,,A,]2 | [D,A,]6 |] %26
V:4
 x2 | x8 | x8 | x8 | x8 | x8 | x8 | x8 | x8 | x8 | x8 | x8 | x8 | x8 | B,4 x4 | x8 | x6 || x2 | %18
 x8 | A,4 x4 | x8 | x8 | x8 | x8 | x2 A,2 x4 | x6 |] %26

